X:197
T:Push About the Jorum THO4.197
M:2/4
L:1/8
Z:vmp. Peter Dunk 2010/11.from a transcription by Fynn Titford-Mock 2007
B:Thompson's Compleat Collection of 200 Favourite Country Dances Volume IV.
Q:1/4=150
K:G
d|BGGG|FAAc|BGBd|g2 fe|dGBG|FAAB|EGFA|G2-G:|
|:d|ggfg|afdd|ggfg|ad z d|ggfg|afed|egfa|g2-g:|
|:d|BGGG|FAAc|BGBd|g2 fe|dGBG|FAAB|EGFA|G2-G:|
